X:1
T:Title
%%score { 1 | 2 }
L:1/8
M:3/4
K:Eb
V:1 treble nm="Grand Piano"
V:2 bass 
V:1
 z2 z2[Q:1/4=92] [GB]>[GB] | [Ge]3 [Ge] [Ad][DAc] | [EGB]2 [B,EG]2 [EGB]>[EGB] | %3
 [DAB]3 [B,DF] [DAB][DAc] |[M:2/4] [EGB]4 |[M:1/4] [B,GB]>[B,GB] |[M:3/4] [Ge]3 [Ge] [Ad][Ac] | %7
 [GB]2 [EG]2 [GB][Gc] | [_Gd]3 [Gd] [Gd][Gd] |[M:2/4] [B,G]4 |[M:1/4] [A,DF]>[A,DG] | %11
[M:3/4] [A,DA]3 [DB] [Dc][Dd] | c2 B2 GG | G3 [GB] [_GB][CG=A] |[M:2/4] [B,G]4 | %15
[M:1/4] [A,DF]>[B,DG] |[M:3/4] [A,DF]2 [G,E]2 [_DGB]>[DGc] | B2 A2 GG | [Ec]3 [CF] [DF][DG] | %19
[M:2/4] E4 |] %20
V:2
 z2 z2 [E,B,]>[E,B,] | [E,B,]3 [E,B,] [E,C]E, | E,2 E,2 E,>E, | B,,3 B,, B,,B,, |[M:2/4] E,4 | %5
[M:1/4] E,>E, |[M:3/4] [E,B,]3 [E,B,] [E,C][E,D] | [E,E]2 [E,B,]2 [E,B,][E,=A,] | %8
 [D,=A,]3 [D,A,] [D,A,][D,A,] |[M:2/4] G,4 |[M:1/4] B,,>B,, |[M:3/4] B,,3 [B,,A,] [B,,A,][B,,A,] | %12
 [E,A,E]2 [E,G,E]2 [E,B,_D][E,B,D] | [D,B,D]3 [D,D] [D,D]D, |[M:2/4] G,4 |[M:1/4] B,,>B,, | %16
[M:3/4] B,,2 E,2 E,>E, | [A,_DG]2 [A,CE]2[K:bass] [E,B,E][E,B,E] | %18
 [A,,A,]3 [A,,A,] [B,,A,][B,,A,] |[M:2/4] [E,G,]4 |] %20

